X: 3244
T: LORD DUPLIN
%R: jig
B: James Kerr "Merry Melodies" v.3 p.27 #244
Z: 2016 John Chambers <jc:trillian.mit.edu>
M: 6/8
L: 1/8
K: D
uA |\
vd2vA FDF | ABA FDF | d2A BAF | E2E EFA |\
d2A FDF | ABA FGA | BGB AFA | D2D D2 |]\
A |\
d2d ABc | d2d fed |
d2d cBA | B2e e2f |\
d2d ABc | d2d cBA | BGB AFA | D2D D2 |]\
A |\
d2d ABc | d2d fed | d2d BAF | E2e e2f |\
d2d fef |
d2a f2e | B2B cBc | d2d d2 |]\
A |\
FDF ABA | FDF cAG | FDF BAF | E2E E2A |\
FDF ABA | FDF def | edB AFA | D2D D2 |]

%%sep 1 1 500
%%sep 1 1 500

